X: 1
T: Mrs. Hamilton of Wishaw's Strathspey
T: 8 x 32S 3C (Bk 23)
P: Mrs. Hamilton of Wishaw's Strathspey
L: 1/8
C: from John Chambers, arr. T. Traub 4-29-2011
M: C
B: Marshall's 1781 and 1822 Collections
B: Gow's Third Collection, 1792
B: MacDonald, The Skye Collection, 1887; p.128
B: Stewart-Robertson, The Athole Collection, 1884; p.288
K:A
|: E|"A"A<AA>A "E"B>G!beambr1!E<G | "A"A<Ac>A "E"B2 B>c |"A"A<AA>F "E"G>AB>c |"Bm"F>B "E"A/G/F/E/ "A"A2 A :|
(3e/f/g/ |"A"a>e a/g/f/b/ a>f e>c | "A"A<A c>e "Bm"f<B "E"Bf/g/ |"A"a>e a/g/f/b/ a>f!beambr1!e<c |  "E"E<E  EF/G/ "A"A2 Ag |
"A"a>e a/g/f/b/ a>f e<c | "A"A<Ac>e "Bm"f<B"E"B>d | "A"c<ee>a "D"d<ff>b |"E"E<E EF/G/ "A"A2 A |]
